storage/app/icons/phosphoricons/fill/chalkboard-fill.svg

<svg xmlns="http://www.w3.org/2000/svg" fill="currentColor" viewBox="0 0 256 256"><path d="M240 192h-8V56a16 16 0 0 0-16-16H40a16 16 0 0 0-16 16v136h-8a8 8 0 0 0 0 16h224a8 8 0 0 0 0-16m-24 0h-72v-16a8 8 0 0 1 8-8h56a8 8 0 0 1 8 8Zm0-48a8 8 0 0 1-16 0V72H56v112a8 8 0 0 1-16 0V64a8 8 0 0 1 8-8h160a8 8 0 0 1 8 8Z"/></svg>

<svg xmlns="http://www.w3.org/2000/svg" viewBox="0 0 256 256" fill="currentColor"><path d="M240,192h-8V56a16,16,0,0,0-16-16H40A16,16,0,0,0,24,56V192H16a8,8,0,0,0,0,16H240a8,8,0,0,0,0-16Zm-24,0H144V176a8,8,0,0,1,8-8h56a8,8,0,0,1,8,8Zm0-48a8,8,0,0,1-16,0V72H56V184a8,8,0,0,1-16,0V64a8,8,0,0,1,8-8H208a8,8,0,0,1,8,8Z"/></svg>
